html-css/module-08/img/icons/icon-tv.svg

<svg width="17" height="17"><path fill-rule="evenodd" fill="#FFF" d="M15.617 4.148H9.936l2.241-2.682c.036.007.067.02.104.02a.665.665 0 100-1.331c-.367 0-.667.3-.667.666 0 .08.02.154.046.225L9.068 4.148h-.244L6.233 1.046a.673.673 0 00.045-.225.668.668 0 00-1.335 0c0 .368.3.665.668.665.037 0 .069-.013.103-.02l2.242 2.682H2.275c-.736 0-1.333.597-1.333 1.331v9.319c0 .735.597 1.331 1.333 1.331h13.342c.736 0 1.333-.596 1.333-1.331V5.479c0-.734-.597-1.331-1.333-1.331zm-2.669 9.318c0 .735-.597 1.332-1.334 1.332H3.61a1.334 1.334 0 01-1.335-1.332V6.811c0-.736.598-1.332 1.335-1.332h8.004c.737 0 1.334.596 1.334 1.332v6.655zm1.966-5.948a.95.95 0 110-1.901.951.951 0 110 1.901z"/></svg>

<svg 
 xmlns="http://www.w3.org/2000/svg"
 xmlns:xlink="http://www.w3.org/1999/xlink"
 width="17px" height="17px">
<path fill-rule="evenodd"  fill="rgb(255, 255, 255)"
 d="M15.617,4.148 L9.936,4.148 L12.177,1.466 C12.213,1.473 12.244,1.486 12.281,1.486 C12.650,1.486 12.948,1.189 12.948,0.821 C12.948,0.455 12.650,0.155 12.281,0.155 C11.914,0.155 11.614,0.455 11.614,0.821 C11.614,0.901 11.634,0.975 11.660,1.046 L9.068,4.148 L8.824,4.148 L6.233,1.046 C6.258,0.975 6.278,0.901 6.278,0.821 C6.278,0.455 5.979,0.155 5.611,0.155 C5.243,0.155 4.943,0.455 4.943,0.821 C4.943,1.189 5.243,1.486 5.611,1.486 C5.648,1.486 5.680,1.473 5.714,1.466 L7.956,4.148 L2.275,4.148 C1.539,4.148 0.942,4.745 0.942,5.479 L0.942,14.798 C0.942,15.533 1.539,16.129 2.275,16.129 L15.617,16.129 C16.353,16.129 16.950,15.533 16.950,14.798 L16.950,5.479 C16.950,4.745 16.353,4.148 15.617,4.148 ZM12.948,13.466 C12.948,14.201 12.351,14.798 11.614,14.798 L3.610,14.798 C2.873,14.798 2.275,14.201 2.275,13.466 L2.275,6.811 C2.275,6.075 2.873,5.479 3.610,5.479 L11.614,5.479 C12.351,5.479 12.948,6.075 12.948,6.811 L12.948,13.466 ZM14.914,7.518 C14.387,7.518 13.961,7.091 13.961,6.567 C13.961,6.042 14.387,5.617 14.914,5.617 C15.439,5.617 15.866,6.042 15.866,6.567 C15.866,7.091 15.439,7.518 14.914,7.518 Z"/>
</svg>
